components/ui-node-icon/src/addGPTColumn/addGPTColumn.large.svg

<svg width="32" height="32" viewBox="0 0 32 32" fill="none" xmlns="http://www.w3.org/2000/svg">
  <path fill-rule="evenodd" clip-rule="evenodd" d="M17 6C17 4.34315 15.6569 3 14 3H8C6.34315 3 5 4.34315 5 6V26C5 27.6569 6.34315 29 8 29H14C15.6569 29 17 27.6569 17 26V23.4682C16.9264 23.3862 16.8505 23.306 16.7722 23.2278C15.6202 22.0758 14.0578 21.4286 12.4286 21.4286C11.7845 21.4286 11.1668 21.1727 10.7113 20.7173C10.2559 20.2618 10 19.6441 10 19C10 18.3559 10.2559 17.7382 10.7113 17.2827C11.1668 16.8273 11.7845 16.5714 12.4286 16.5714C14.0578 16.5714 15.6202 15.9242 16.7722 14.7722C16.8505 14.694 16.9264 14.6138 17 14.5318V6ZM17 15.917C15.7219 16.9817 14.1056 17.5714 12.4286 17.5714C12.0497 17.5714 11.6863 17.7219 11.4184 17.9898C11.1505 18.2578 11 18.6211 11 19C11 19.3789 11.1505 19.7422 11.4184 20.0102C11.6863 20.2781 12.0497 20.4286 12.4286 20.4286C14.1056 20.4286 15.7219 21.0183 17 22.083L17 15.917Z" fill="url(#paint0_linear_2707_1469)"/>
  <path d="M31 19C31 19.3789 30.8495 19.7422 30.5816 20.0102C30.3137 20.2781 29.9503 20.4286 29.5714 20.4286C27.677 20.4286 25.8602 21.1811 24.5207 22.5207C23.1811 23.8602 22.4286 25.677 22.4286 27.5714C22.4286 27.9503 22.2781 28.3137 22.0102 28.5816C21.7422 28.8495 21.3789 29 21 29C20.6211 29 20.2578 28.8495 19.9898 28.5816C19.7219 28.3137 19.5714 27.9503 19.5714 27.5714C19.5714 25.677 18.8189 23.8602 17.4793 22.5207C16.1398 21.1811 14.323 20.4286 12.4286 20.4286C12.0497 20.4286 11.6863 20.2781 11.4184 20.0102C11.1505 19.7422 11 19.3789 11 19C11 18.6211 11.1505 18.2578 11.4184 17.9898C11.6863 17.7219 12.0497 17.5714 12.4286 17.5714C14.323 17.5714 16.1398 16.8189 17.4793 15.4793C18.8189 14.1398 19.5714 12.323 19.5714 10.4286C19.5714 10.0497 19.7219 9.68633 19.9898 9.41842C20.2578 9.15051 20.6211 9 21 9C21.3789 9 21.7422 9.15051 22.0102 9.41842C22.2781 9.68633 22.4286 10.0497 22.4286 10.4286C22.4286 12.323 23.1811 14.1398 24.5207 15.4793C25.8602 16.8189 27.677 17.5714 29.5714 17.5714C29.9503 17.5714 30.3137 17.7219 30.5816 17.9898C30.8495 18.2578 31 18.6211 31 19Z" fill="url(#paint1_linear_2707_1469)"/>
  <defs>
    <linearGradient id="paint0_linear_2707_1469" x1="11" y1="3" x2="11" y2="29" gradientUnits="userSpaceOnUse">
      <stop stop-color="var(--tbl--colors--icons--ai--secondary--from)"/>
      <stop offset="1" stop-color="var(--tbl--colors--icons--ai--secondary--to)"/>
    </linearGradient>
    <linearGradient id="paint1_linear_2707_1469" x1="21" y1="9" x2="21" y2="29" gradientUnits="userSpaceOnUse">
      <stop stop-color="var(--tbl--colors--icons--ai--primary--from)"/>
      <stop offset="1" stop-color="var(--tbl--colors--icons--ai--primary--to)"/>
    </linearGradient>
  </defs>
</svg>

<svg xmlns="http://www.w3.org/2000/svg" width="32" height="32" fill="none" viewBox="0 0 32 32">
  <path fill="url(#a)" fill-rule="evenodd" d="M17 6a3 3 0 0 0-3-3H8a3 3 0 0 0-3 3v20a3 3 0 0 0 3 3h6a3 3 0 0 0 3-3v-2.532a6.143 6.143 0 0 0-4.571-2.04 2.429 2.429 0 0 1 0-4.857A6.143 6.143 0 0 0 17 14.531V6Zm0 9.917a7.143 7.143 0 0 1-4.571 1.654 1.429 1.429 0 1 0 0 2.858c1.677 0 3.293.59 4.571 1.654v-6.166Z" clip-rule="evenodd"/>
  <path fill="url(#b)" d="M31 19a1.429 1.429 0 0 1-1.429 1.429 7.142 7.142 0 0 0-7.142 7.142 1.429 1.429 0 1 1-2.858 0 7.142 7.142 0 0 0-7.142-7.142 1.429 1.429 0 1 1 0-2.858 7.142 7.142 0 0 0 7.142-7.142 1.429 1.429 0 1 1 2.858 0 7.142 7.142 0 0 0 7.142 7.142A1.429 1.429 0 0 1 31 19Z"/>
  <defs>
    <linearGradient id="a" x1="11" x2="11" y1="3" y2="29" gradientUnits="userSpaceOnUse">
      <stop stop-color="var(--tbl--colors--icons--ai--secondary--from)"/>
      <stop offset="1" stop-color="var(--tbl--colors--icons--ai--secondary--to)"/>
    </linearGradient>
    <linearGradient id="b" x1="21" x2="21" y1="9" y2="29" gradientUnits="userSpaceOnUse">
      <stop stop-color="var(--tbl--colors--icons--ai--primary--from)"/>
      <stop offset="1" stop-color="var(--tbl--colors--icons--ai--primary--to)"/>
    </linearGradient>
  </defs>
</svg>
